svg/underline.svg

<svg xmlns="http://www.w3.org/2000/svg" viewBox="0 0 32 32" enable-background="new 0 0 32 32"><path d="M 8 4 L 8 16 C 8 20.429915 11.570085 24 16 24 C 20.429915 24 24 20.429915 24 16 L 24 4 L 22 4 L 22 16 C 22 19.370085 19.370085 22 16 22 C 12.629915 22 10 19.370085 10 16 L 10 4 L 8 4 z M 6 26 L 6 28 L 26 28 L 26 26 L 6 26 z" color="#000" overflow="visible" enable-background="accumulate"/></svg>

<svg xmlns="http://www.w3.org/2000/svg" viewBox="0 0 32 32"><path d="M8 4v12c0 4.43 3.57 8 8 8s8-3.57 8-8V4h-2v12c0 3.37-2.63 6-6 6s-6-2.63-6-6V4H8zM6 26v2h20v-2H6z"/></svg>
